X:155
T:Minuette
O:No 155 William Clarke of Feltwell
M:3/4
L:1/8
N:cr rest added to bar A4
K:G
G2 GBAc| B2 Bdce| d2 gfed|{d}!trill!c>Bc/ B2z2| G2 GBAc| B2 Bdce| d>e/d/ c2 B2 |!trill!B>A/B/ A2 z2:|
|: d2 edcB| c2 dcBA| BdgdcB| !trill! B>A/B/A2z2| G2 GBAc| Bgfagd| {d2}c2 B2 !trill!A G/A/|G6||}

